static/assets/img/icons/theme/code/git-1.svg

<svg height="24" viewBox="0 0 24 24" width="24" xmlns="http://www.w3.org/2000/svg"><g fill="none" fill-rule="evenodd"><path d="m0 0h24v24h-24z" opacity="0"/><g fill="#000"><rect height="9" opacity=".3" rx="1" width="2" x="11" y="8"/><path d="m12 21c1.1045695 0 2-.8954305 2-2s-.8954305-2-2-2-2 .8954305-2 2 .8954305 2 2 2zm0 2c-2.209139 0-4-1.790861-4-4s1.790861-4 4-4 4 1.790861 4 4-1.790861 4-4 4z" fill-rule="nonzero"/><path d="m12 7c1.1045695 0 2-.8954305 2-2s-.8954305-2-2-2-2 .8954305-2 2 .8954305 2 2 2zm0 2c-2.209139 0-4-1.790861-4-4s1.790861-4 4-4 4 1.790861 4 4-1.790861 4-4 4z" fill-rule="nonzero"/></g></g></svg>

<svg width="24px" height="24px" viewBox="0 0 24 24" version="1.1" xmlns="http://www.w3.org/2000/svg" xmlns:xlink="http://www.w3.org/1999/xlink">
    <title>Icon For Git#1</title>
    <g stroke="none" stroke-width="1" fill="none" fill-rule="evenodd">
        <rect opacity="0" x="0" y="0" width="24" height="24"></rect>
        <rect fill="#000000" opacity="0.3" x="11" y="8" width="2" height="9" rx="1"></rect>
        <path d="M12,21 C13.1045695,21 14,20.1045695 14,19 C14,17.8954305 13.1045695,17 12,17 C10.8954305,17 10,17.8954305 10,19 C10,20.1045695 10.8954305,21 12,21 Z M12,23 C9.790861,23 8,21.209139 8,19 C8,16.790861 9.790861,15 12,15 C14.209139,15 16,16.790861 16,19 C16,21.209139 14.209139,23 12,23 Z" fill="#000000" fill-rule="nonzero"></path>
        <path d="M12,7 C13.1045695,7 14,6.1045695 14,5 C14,3.8954305 13.1045695,3 12,3 C10.8954305,3 10,3.8954305 10,5 C10,6.1045695 10.8954305,7 12,7 Z M12,9 C9.790861,9 8,7.209139 8,5 C8,2.790861 9.790861,1 12,1 C14.209139,1 16,2.790861 16,5 C16,7.209139 14.209139,9 12,9 Z" fill="#000000" fill-rule="nonzero"></path>
    </g>
</svg>
